Newaita-dark/apps/24/preferences-desktop-theme-windowdecorations.svg

<svg height="24" viewBox="0 0 24 24" width="24" xmlns="http://www.w3.org/2000/svg" xmlns:xlink="http://www.w3.org/1999/xlink"><linearGradient id="a" gradientUnits="userSpaceOnUse" x1="11.90739" x2="11.90739" y1="21.02545025" y2="22.01773325002"><stop offset="0" stop-opacity=".27451"/><stop offset="1" stop-opacity="0"/></linearGradient><linearGradient id="b"><stop offset="0" stop-opacity=".313726"/><stop offset=".222222" stop-opacity=".27451"/><stop offset="1" stop-opacity="0"/></linearGradient><radialGradient id="c" cx="450.908936" cy="189.579361" gradientTransform="matrix(.00000013 -.0585994 -.105479 -.00000008 40.090268 47.696498)" gradientUnits="userSpaceOnUse" r="21.166656" xlink:href="#b"/><radialGradient id="d" cx="450.908936" cy="189.579361" gradientTransform="matrix(-.00000013 .0585994 .105479 .00000008 -16.275496 -5.645611)" gradientUnits="userSpaceOnUse" r="21.166656" xlink:href="#b"/><radialGradient id="e" cx="450.908936" cy="189.579361" gradientTransform="matrix(-.00000013 -.0585994 .105479 -.00000008 -16.275496 47.696498)" gradientUnits="userSpaceOnUse" r="21.166656" xlink:href="#b"/><radialGradient id="f" cx="450.908936" cy="189.579361" gradientTransform="matrix(.00000013 .0585994 -.105479 .00000008 40.090267 -5.645611)" gradientUnits="userSpaceOnUse" r="21.166656" xlink:href="#b"/><linearGradient id="g"><stop offset="0" stop-color="#bdbdbd"/><stop offset="1" stop-color="#e0e0e0"/></linearGradient><linearGradient id="h" gradientTransform="matrix(.0565122 0 0 .163059 -4.39051 25.231011)" gradientUnits="userSpaceOnUse" x1="306.916656" x2="305.954559" xlink:href="#g" y1="-25.791676" y2="-135.329163"/><linearGradient id="i" gradientTransform="matrix(.0565122 0 0 .163059 -4.39051 25.23101)" gradientUnits="userSpaceOnUse" x1="306.916656" x2="305.954559" xlink:href="#g" y1="-25.791676" y2="-135.329163"/><linearGradient id="j" gradientTransform="matrix(.0565122 0 0 .163059 -4.39051 25.23101)" gradientUnits="userSpaceOnUse" x1="306.916656" x2="305.954559" y1="-25.791676" y2="-135.329163"><stop offset="0" stop-color="#424242"/><stop offset="1" stop-color="#616161"/></linearGradient><linearGradient id="k" gradientUnits="userSpaceOnUse" x1="333.37491775" x2="333.37491775" y1="-121.04159691667" y2="-89.29164325"><stop offset="0" stop-color="#66bb6a"/><stop offset="1" stop-color="#81c784"/></linearGradient><linearGradient id="l" gradientUnits="userSpaceOnUse" x1="386.29151025" x2="386.29151025" y1="-121.04167408333" y2="-89.29163575"><stop offset="0" stop-color="#ffd54f"/><stop offset="1" stop-color="#ffe082"/></linearGradient><linearGradient id="m" gradientUnits="userSpaceOnUse" x1="439.208298" x2="439.208298" y1="-121.041682" y2="-89.291686"><stop offset="0" stop-color="#e57373"/><stop offset="1" stop-color="#ef9a9a"/></linearGradient><path d="m3.472656 21.027344h16.867188v.992187h-16.867188zm0 0" fill="url(#a)"/><path d="m20.339844 21.027344h1.988281v-.996094h-1.988281zm0 0" fill="url(#c)"/><path d="m3.472656 21.027344h-1.984375v.992187h1.984375zm0 0" fill="url(#d)"/><path d="m3.472656 21.027344h-1.984375v-.996094h1.984375zm0 0" fill="url(#e)"/><path d="m20.339844 21.027344h1.988281v.992187h-1.988281zm0 0" fill="url(#f)"/><path d="m2.480469 3.164062h18.855469c.546874 0 .992187.445313.992187.992188v15.875c0 .550781-.445313.996094-.992187.996094h-18.855469c-.546875 0-.992188-.445313-.992188-.996094v-15.875c0-.546875.445313-.992188.992188-.992188zm0 0" fill="url(#h)"/><path d="m11.90625 3.164062v17.863282h9.429688c.546874 0 .992187-.445313.992187-.996094v-15.875c0-.550781-.445313-.992188-.992187-.992188zm0 0" fill="url(#i)"/><path d="m1.488281 7.132812h20.839844v.496094h-20.839844zm0 0" fill="#0a0d0e" fill-opacity=".235294"/><path d="m2.480469 3.164062c-.550781 0-.992188.441407-.992188.992188v2.976562h20.839844v-2.976562c0-.550781-.445313-.992188-.992187-.992188zm0 0" fill="url(#i)"/><path d="m2.480469 21.035156c-.550781 0-.992188-.441406-.992188-.992187v-.257813c0 .550782.441407.992188.992188.992188h18.855469c.546874 0 .992187-.441406.992187-.992188v.257813c0 .550781-.445313.992187-.992187.992187zm0 0" fill-opacity=".235294"/><path d="m11.90625 3.164062v3.96875h10.421875v-2.976562c0-.550781-.445313-.992188-.992187-.992188zm0 0" fill="url(#j)"/><path d="m2.480469 3.222656c-.550781 0-.992188.441406-.992188.992188v.257812c0-.550781.441407-.992187.992188-.992187h18.855469c.546874 0 .992187.441406.992187.992187v-.257812c0-.550782-.445313-.992188-.992187-.992188zm0 0" fill="#fff" fill-opacity=".392157"/><path d="m2.480469 3.09375c-.585938 0-1.0625.476562-1.0625 1.0625v15.875c0 .589844.476562 1.066406 1.0625 1.066406h18.855469c.585937 0 1.0625-.476562 1.0625-1.066406v-15.875c0-.585938-.476563-1.0625-1.0625-1.0625zm0 .140625h18.855469c.511718 0 .921874.410156.921874.921875v15.875c0 .515625-.410156.925781-.921874.925781h-18.855469c-.511719 0-.921875-.410156-.921875-.925781v-15.875c0-.511719.410156-.921875.921875-.921875zm0 0" fill="#212121"/><g stroke-width="3"><path d="m333.38483-121.008976c8.749165 0 15.831821 7.082657 15.831821 15.831822 0 8.749164-7.082656 15.915147-15.831821 15.915147-8.749164 0-15.915147-7.165983-15.915147-15.915147 0-8.749165 7.165983-15.831822 15.915147-15.831822zm0 0" fill="url(#k)" stroke="#212121" stroke-linecap="round" transform="matrix(.0468795 0 0 .0468795 0 10.079087)"/><path d="m386.296444-121.008976c8.749164 0 15.831821 7.082657 15.831821 15.831822 0 8.749164-7.082657 15.915147-15.831821 15.915147-8.749165 0-15.915147-7.165983-15.915147-15.915147 0-8.749165 7.165982-15.831822 15.915147-15.831822zm0 0" fill="url(#l)" stroke="#212121" stroke-linecap="round" transform="matrix(.0468795 0 0 .0468795 0 10.079087)"/><path d="m439.208058-121.008976c8.749164 0 15.915147 7.082657 15.915147 15.831822 0 8.749164-7.165983 15.915147-15.915147 15.915147-8.749165 0-15.915147-7.165983-15.915147-15.915147 0-8.749165 7.165982-15.831822 15.915147-15.831822zm0 0" fill="url(#m)" stroke="#212121" stroke-linecap="round" transform="matrix(.0468795 0 0 .0468795 0 10.079087)"/></g><path d="m2.480469 3.222656c-.550781 0-.992188.441406-.992188.992188v.257812c0-.550781.441407-.992187.992188-.992187h9.425781v-.257813zm0 0" fill="#fff" fill-opacity=".588235"/><path d="m253.975747-62.847863v-84.658582" fill="none" stroke="#212121" stroke-width="1.414214" transform="matrix(.0468795 0 0 .0468795 0 10.079087)"/><path d="m31.746968-62.847863h444.540882" fill="none" stroke="#212121" stroke-width="3" transform="matrix(.0468795 0 0 .0468795 0 10.079087)"/></svg>

<?xml version="1.0" encoding="UTF-8"?>
<svg xmlns="http://www.w3.org/2000/svg" xmlns:xlink="http://www.w3.org/1999/xlink" width="24px" height="24px" viewBox="0 0 24 24" version="1.1">
<defs>
<linearGradient id="linear0" gradientUnits="userSpaceOnUse" x1="254" y1="233.5" x2="254" y2="254.666672" gradientTransform="matrix(0.0468795,0,0,0.0468795,-0.0000028613,10.079087)">
<stop offset="0" style="stop-color:rgb(0%,0%,0%);stop-opacity:0.27451;"/>
<stop offset="1" style="stop-color:rgb(0%,0%,0%);stop-opacity:0;"/>
</linearGradient>
<radialGradient id="radial0" gradientUnits="userSpaceOnUse" cx="450.908936" cy="189.579361" fx="450.908936" fy="189.579361" r="21.166656" gradientTransform="matrix(0.000000130628,-0.0585994,-0.105479,-0.0000000761539,40.090268,47.696498)">
<stop offset="0" style="stop-color:rgb(0%,0%,0%);stop-opacity:0.313726;"/>
<stop offset="0.222222" style="stop-color:rgb(0%,0%,0%);stop-opacity:0.27451;"/>
<stop offset="1" style="stop-color:rgb(0%,0%,0%);stop-opacity:0;"/>
</radialGradient>
<radialGradient id="radial1" gradientUnits="userSpaceOnUse" cx="450.908936" cy="189.579361" fx="450.908936" fy="189.579361" r="21.166656" gradientTransform="matrix(-0.000000130628,0.0585994,0.105479,0.0000000761539,-16.275496,-5.645611)">
<stop offset="0" style="stop-color:rgb(0%,0%,0%);stop-opacity:0.313726;"/>
<stop offset="0.222222" style="stop-color:rgb(0%,0%,0%);stop-opacity:0.27451;"/>
<stop offset="1" style="stop-color:rgb(0%,0%,0%);stop-opacity:0;"/>
</radialGradient>
<radialGradient id="radial2" gradientUnits="userSpaceOnUse" cx="450.908936" cy="189.579361" fx="450.908936" fy="189.579361" r="21.166656" gradientTransform="matrix(-0.000000130628,-0.0585994,0.105479,-0.0000000761539,-16.275496,47.696498)">
<stop offset="0" style="stop-color:rgb(0%,0%,0%);stop-opacity:0.313726;"/>
<stop offset="0.222222" style="stop-color:rgb(0%,0%,0%);stop-opacity:0.27451;"/>
<stop offset="1" style="stop-color:rgb(0%,0%,0%);stop-opacity:0;"/>
</radialGradient>
<radialGradient id="radial3" gradientUnits="userSpaceOnUse" cx="450.908936" cy="189.579361" fx="450.908936" fy="189.579361" r="21.166656" gradientTransform="matrix(0.000000130628,0.0585994,-0.105479,0.0000000761539,40.090267,-5.645611)">
<stop offset="0" style="stop-color:rgb(0%,0%,0%);stop-opacity:0.313726;"/>
<stop offset="0.222222" style="stop-color:rgb(0%,0%,0%);stop-opacity:0.27451;"/>
<stop offset="1" style="stop-color:rgb(0%,0%,0%);stop-opacity:0;"/>
</radialGradient>
<linearGradient id="linear1" gradientUnits="userSpaceOnUse" x1="306.916656" y1="-25.791676" x2="305.954559" y2="-135.329163" gradientTransform="matrix(0.0565122,0,0,0.163059,-4.39051,25.231011)">
<stop offset="0" style="stop-color:rgb(74.117649%,74.117649%,74.117649%);stop-opacity:1;"/>
<stop offset="1" style="stop-color:rgb(87.843138%,87.843138%,87.843138%);stop-opacity:1;"/>
</linearGradient>
<linearGradient id="linear2" gradientUnits="userSpaceOnUse" x1="306.916656" y1="-25.791676" x2="305.954559" y2="-135.329163" gradientTransform="matrix(0.0565122,0,0,0.163059,-4.39051,25.23101)">
<stop offset="0" style="stop-color:rgb(74.117649%,74.117649%,74.117649%);stop-opacity:1;"/>
<stop offset="1" style="stop-color:rgb(87.843138%,87.843138%,87.843138%);stop-opacity:1;"/>
</linearGradient>
<linearGradient id="linear3" gradientUnits="userSpaceOnUse" x1="306.916656" y1="-25.791676" x2="305.954559" y2="-135.329163" gradientTransform="matrix(0.0565122,0,0,0.163059,-4.39051,25.23101)">
<stop offset="0" style="stop-color:rgb(74.117649%,74.117649%,74.117649%);stop-opacity:1;"/>
<stop offset="1" style="stop-color:rgb(87.843138%,87.843138%,87.843138%);stop-opacity:1;"/>
</linearGradient>
<linearGradient id="linear4" gradientUnits="userSpaceOnUse" x1="306.916656" y1="-25.791676" x2="305.954559" y2="-135.329163" gradientTransform="matrix(0.0565122,0,0,0.163059,-4.39051,25.23101)">
<stop offset="0" style="stop-color:rgb(25.882354%,25.882354%,25.882354%);stop-opacity:1;"/>
<stop offset="1" style="stop-color:rgb(38.039216%,38.039216%,38.039216%);stop-opacity:1;"/>
</linearGradient>
<linearGradient id="linear5" gradientUnits="userSpaceOnUse" x1="349.25" y1="-158.083328" x2="349.25" y2="-115.75" gradientTransform="matrix(0.749999,0,0,0.749999,71.437767,-2.479259)">
<stop offset="0" style="stop-color:rgb(40.000001%,73.333335%,41.568628%);stop-opacity:1;"/>
<stop offset="1" style="stop-color:rgb(50.588238%,78.039217%,51.764709%);stop-opacity:1;"/>
</linearGradient>
<linearGradient id="linear6" gradientUnits="userSpaceOnUse" x1="349.25" y1="-158.083328" x2="349.25" y2="-115.75" gradientTransform="matrix(0.750001,0,0,0.750001,124.353661,-2.47902)">
<stop offset="0" style="stop-color:rgb(100%,83.529413%,30.980393%);stop-opacity:1;"/>
<stop offset="1" style="stop-color:rgb(100%,87.843138%,50.980395%);stop-opacity:1;"/>
</linearGradient>
<linearGradient id="linear7" gradientUnits="userSpaceOnUse" x1="349.25" y1="-158.083328" x2="349.25" y2="-115.75" gradientTransform="matrix(0.75,0,0,0.75,177.270798,-2.479186)">
<stop offset="0" style="stop-color:rgb(89.803922%,45.09804%,45.09804%);stop-opacity:1;"/>
<stop offset="1" style="stop-color:rgb(93.725491%,60.392159%,60.392159%);stop-opacity:1;"/>
</linearGradient>
</defs>
<g id="surface1">
<path style=" stroke:none;fill-rule:nonzero;fill:url(#linear0);" d="M 3.472656 21.027344 L 20.339844 21.027344 L 20.339844 22.019531 L 3.472656 22.019531 Z M 3.472656 21.027344 "/>
<path style=" stroke:none;fill-rule:nonzero;fill:url(#radial0);" d="M 20.339844 21.027344 L 22.328125 21.027344 L 22.328125 20.03125 L 20.339844 20.03125 Z M 20.339844 21.027344 "/>
<path style=" stroke:none;fill-rule:nonzero;fill:url(#radial1);" d="M 3.472656 21.027344 L 1.488281 21.027344 L 1.488281 22.019531 L 3.472656 22.019531 Z M 3.472656 21.027344 "/>
<path style=" stroke:none;fill-rule:nonzero;fill:url(#radial2);" d="M 3.472656 21.027344 L 1.488281 21.027344 L 1.488281 20.03125 L 3.472656 20.03125 Z M 3.472656 21.027344 "/>
<path style=" stroke:none;fill-rule:nonzero;fill:url(#radial3);" d="M 20.339844 21.027344 L 22.328125 21.027344 L 22.328125 22.019531 L 20.339844 22.019531 Z M 20.339844 21.027344 "/>
<path style=" stroke:none;fill-rule:nonzero;fill:url(#linear1);" d="M 2.480469 3.164062 L 21.335938 3.164062 C 21.882812 3.164062 22.328125 3.609375 22.328125 4.15625 L 22.328125 20.03125 C 22.328125 20.582031 21.882812 21.027344 21.335938 21.027344 L 2.480469 21.027344 C 1.933594 21.027344 1.488281 20.582031 1.488281 20.03125 L 1.488281 4.15625 C 1.488281 3.609375 1.933594 3.164062 2.480469 3.164062 Z M 2.480469 3.164062 "/>
<path style=" stroke:none;fill-rule:nonzero;fill:url(#linear2);" d="M 11.90625 3.164062 L 11.90625 21.027344 L 21.335938 21.027344 C 21.882812 21.027344 22.328125 20.582031 22.328125 20.03125 L 22.328125 4.15625 C 22.328125 3.605469 21.882812 3.164062 21.335938 3.164062 Z M 11.90625 3.164062 "/>
<path style=" stroke:none;fill-rule:nonzero;fill:rgb(3.921569%,5.098039%,5.490196%);fill-opacity:0.235294;" d="M 1.488281 7.132812 L 22.328125 7.132812 L 22.328125 7.628906 L 1.488281 7.628906 Z M 1.488281 7.132812 "/>
<path style=" stroke:none;fill-rule:nonzero;fill:url(#linear3);" d="M 2.480469 3.164062 C 1.929688 3.164062 1.488281 3.605469 1.488281 4.15625 L 1.488281 7.132812 L 22.328125 7.132812 L 22.328125 4.15625 C 22.328125 3.605469 21.882812 3.164062 21.335938 3.164062 Z M 2.480469 3.164062 "/>
<path style=" stroke:none;fill-rule:nonzero;fill:rgb(0%,0%,0%);fill-opacity:0.235294;" d="M 2.480469 21.035156 C 1.929688 21.035156 1.488281 20.59375 1.488281 20.042969 L 1.488281 19.785156 C 1.488281 20.335938 1.929688 20.777344 2.480469 20.777344 L 21.335938 20.777344 C 21.882812 20.777344 22.328125 20.335938 22.328125 19.785156 L 22.328125 20.042969 C 22.328125 20.59375 21.882812 21.035156 21.335938 21.035156 Z M 2.480469 21.035156 "/>
<path style=" stroke:none;fill-rule:nonzero;fill:url(#linear4);" d="M 11.90625 3.164062 L 11.90625 7.132812 L 22.328125 7.132812 L 22.328125 4.15625 C 22.328125 3.605469 21.882812 3.164062 21.335938 3.164062 Z M 11.90625 3.164062 "/>
<path style=" stroke:none;fill-rule:nonzero;fill:rgb(100%,100%,100%);fill-opacity:0.392157;" d="M 2.480469 3.222656 C 1.929688 3.222656 1.488281 3.664062 1.488281 4.214844 L 1.488281 4.472656 C 1.488281 3.921875 1.929688 3.480469 2.480469 3.480469 L 21.335938 3.480469 C 21.882812 3.480469 22.328125 3.921875 22.328125 4.472656 L 22.328125 4.214844 C 22.328125 3.664062 21.882812 3.222656 21.335938 3.222656 Z M 2.480469 3.222656 "/>
<path style=" stroke:none;fill-rule:nonzero;fill:rgb(12.941177%,12.941177%,12.941177%);fill-opacity:1;" d="M 2.480469 3.09375 C 1.894531 3.09375 1.417969 3.570312 1.417969 4.15625 L 1.417969 20.03125 C 1.417969 20.621094 1.894531 21.097656 2.480469 21.097656 L 21.335938 21.097656 C 21.921875 21.097656 22.398438 20.621094 22.398438 20.03125 L 22.398438 4.15625 C 22.398438 3.570312 21.921875 3.09375 21.335938 3.09375 Z M 2.480469 3.234375 L 21.335938 3.234375 C 21.847656 3.234375 22.257812 3.644531 22.257812 4.15625 L 22.257812 20.03125 C 22.257812 20.546875 21.847656 20.957031 21.335938 20.957031 L 2.480469 20.957031 C 1.96875 20.957031 1.558594 20.546875 1.558594 20.03125 L 1.558594 4.15625 C 1.558594 3.644531 1.96875 3.234375 2.480469 3.234375 Z M 2.480469 3.234375 "/>
<path style="fill-rule:nonzero;fill:url(#linear5);stroke-width:3;stroke-linecap:round;stroke-linejoin:miter;stroke:rgb(12.941177%,12.941177%,12.941177%);stroke-opacity:1;stroke-miterlimit:4;" d="M 333.38483 -121.008976 C 342.133995 -121.008976 349.216651 -113.926319 349.216651 -105.177154 C 349.216651 -96.42799 342.133995 -89.262007 333.38483 -89.262007 C 324.635666 -89.262007 317.469683 -96.42799 317.469683 -105.177154 C 317.469683 -113.926319 324.635666 -121.008976 333.38483 -121.008976 Z M 333.38483 -121.008976 " transform="matrix(0.0468795,0,0,0.0468795,0,10.079087)"/>
<path style="fill-rule:nonzero;fill:url(#linear6);stroke-width:3;stroke-linecap:round;stroke-linejoin:miter;stroke:rgb(12.941177%,12.941177%,12.941177%);stroke-opacity:1;stroke-miterlimit:4;" d="M 386.296444 -121.008976 C 395.045608 -121.008976 402.128265 -113.926319 402.128265 -105.177154 C 402.128265 -96.42799 395.045608 -89.262007 386.296444 -89.262007 C 377.547279 -89.262007 370.381297 -96.42799 370.381297 -105.177154 C 370.381297 -113.926319 377.547279 -121.008976 386.296444 -121.008976 Z M 386.296444 -121.008976 " transform="matrix(0.0468795,0,0,0.0468795,0,10.079087)"/>
<path style="fill-rule:nonzero;fill:url(#linear7);stroke-width:3;stroke-linecap:round;stroke-linejoin:miter;stroke:rgb(12.941177%,12.941177%,12.941177%);stroke-opacity:1;stroke-miterlimit:4;" d="M 439.208058 -121.008976 C 447.957222 -121.008976 455.123205 -113.926319 455.123205 -105.177154 C 455.123205 -96.42799 447.957222 -89.262007 439.208058 -89.262007 C 430.458893 -89.262007 423.292911 -96.42799 423.292911 -105.177154 C 423.292911 -113.926319 430.458893 -121.008976 439.208058 -121.008976 Z M 439.208058 -121.008976 " transform="matrix(0.0468795,0,0,0.0468795,0,10.079087)"/>
<path style=" stroke:none;fill-rule:nonzero;fill:rgb(100%,100%,100%);fill-opacity:0.588235;" d="M 2.480469 3.222656 C 1.929688 3.222656 1.488281 3.664062 1.488281 4.214844 L 1.488281 4.472656 C 1.488281 3.921875 1.929688 3.480469 2.480469 3.480469 L 11.90625 3.480469 L 11.90625 3.222656 Z M 2.480469 3.222656 "/>
<path style="fill:none;stroke-width:1.414214;stroke-linecap:butt;stroke-linejoin:miter;stroke:rgb(12.941177%,12.941177%,12.941177%);stroke-opacity:1;stroke-miterlimit:4;" d="M 253.975747 -62.847863 L 253.975747 -147.506445 " transform="matrix(0.0468795,0,0,0.0468795,0,10.079087)"/>
<path style="fill:none;stroke-width:3;stroke-linecap:butt;stroke-linejoin:miter;stroke:rgb(12.941177%,12.941177%,12.941177%);stroke-opacity:1;stroke-miterlimit:4;" d="M 31.746968 -62.847863 L 476.28785 -62.847863 " transform="matrix(0.0468795,0,0,0.0468795,0,10.079087)"/>
</g>
</svg>
